X: 45
T: No_34_"The_Other_Tribes_Are_Praising_Me".krn
N: Derived from No_34_"The_Other_Tribes_Are_Praising_Me".krn
%%abc-version 2.0
%%abcx-abcm2ps-target-version 5.9.1 (29 Sep 2008)
%%abc-creator hum2abc beta
%%abcx-conversion-date 2019/03/15 08:36:13
%%humdrum-veritas 3077073328
%%humdrum-veritas-data 1285564240
%%linebreak <none>
%%barnumbers 0
L: 1/8
M: 2/4
%%staves {1 2}
V: 1 clef=bass
V: 2 clef=bass
K: E
[V:1] [K:clef=bass][M:2/4]B,2B,2 ||  
[V:2] [K:clef=bass][M:2/4]z2z E,, ||  
[V:1] [M:3/4]CB, A,G, G,E, ||  
[V:2] [M:3/4]z E,, z E,, z E,, ||  
[V:1] [M:2/4]G,2G,2 | 
[V:2] [M:2/4]z E,, z E,, | 
[V:1] G,G,z2 | 
[V:2] E,, zz2 | 
[V:1] B,2B,2 ||  
[V:2] E,, z E,, z ||  
[V:1] [M:3/4]DC CB, B, z ||  
[V:2] [M:3/4]E,, z E,, z E,, z ||  
[V:1] [M:2/4]F,E, G,G, | 
[V:2] [M:2/4]E,, z E,, z | 
[V:1] B,A, G, z ||  
[V:2] E,, z E,, z ||  
[V:1] [M:3/4]G,2E,E,z2 | 
[V:2] [M:3/4]E,, z E,,E,,z2 | 
[V:1] G,G, E,C, z C, ||  
[V:2] E,,E,, z E,, z E,, ||  
[V:1] [M:2/4]E,2z C, | 
[V:2] [M:2/4]z E,, z E,, | 
[V:1] E,2E,E, | 
[V:2] z E,, E,, z | 
[V:1] z4 | 
[V:2] z4 | 
[V:1] G,2G,2 | 
[V:2] E,, z E,, z | 
[V:1] B,A, G, z ||  
[V:2] E,, z E,, z ||  
[V:1] [M:3/4]G,2E,E,z2 | 
[V:2] [M:3/4]E,, z E,,E,,z2 | 
[V:1] G,G, E,C, z C, ||  
[V:2] E,,E,, z E,, z E,, ||  
[V:1] [M:2/4]E,2z C, | 
[V:2] [M:2/4]z E,, z E,, | 
[V:1] E,2E,E, |]  
[V:2] E,, z E,,E,, |]  



